X:212
T:Untitled Set Tune. JaW.212
M:C
L:1/8
Q:1/2=80
S:James Winder Ms, Lancashire, 1835-41
R:.Set Tune
O:England
A:Wyresdale,Lancashire
Z:vmp.Chris Partington, Aug 2004
K:D
A>F|D2d>”^B in MS”A F2A>F|G2g4e>g|f>ad>f e>gc>e|d2d>d d2:|!
|:A>c|e2c>e g2e>g|f>ad>f e2A>c|e2c>e g2e>g|f>ad>f e2A>F|!
D2d>”^B in MS”A F2A>F|G2g4e>g|f>ad>f e>gc>e|d2d>d d2:|

